IconSet/eva icons.iconjar/icons/loader-outline.svg

<svg xmlns="http://www.w3.org/2000/svg" viewBox="0 0 24 24"><g data-name="Layer 2"><g data-name="loader"><rect width="24" height="24" transform="rotate(180 12 12)" opacity="0"/><path d="M12 2a1 1 0 0 0-1 1v2a1 1 0 0 0 2 0V3a1 1 0 0 0-1-1z"/><path d="M21 11h-2a1 1 0 0 0 0 2h2a1 1 0 0 0 0-2z"/><path d="M6 12a1 1 0 0 0-1-1H3a1 1 0 0 0 0 2h2a1 1 0 0 0 1-1z"/><path d="M6.22 5a1 1 0 0 0-1.39 1.47l1.44 1.39a1 1 0 0 0 .73.28 1 1 0 0 0 .72-.31 1 1 0 0 0 0-1.41z"/><path d="M17 8.14a1 1 0 0 0 .69-.28l1.44-1.39A1 1 0 0 0 17.78 5l-1.44 1.42a1 1 0 0 0 0 1.41 1 1 0 0 0 .66.31z"/><path d="M12 18a1 1 0 0 0-1 1v2a1 1 0 0 0 2 0v-2a1 1 0 0 0-1-1z"/><path d="M17.73 16.14a1 1 0 0 0-1.39 1.44L17.78 19a1 1 0 0 0 .69.28 1 1 0 0 0 .72-.3 1 1 0 0 0 0-1.42z"/><path d="M6.27 16.14l-1.44 1.39a1 1 0 0 0 0 1.42 1 1 0 0 0 .72.3 1 1 0 0 0 .67-.25l1.44-1.39a1 1 0 0 0-1.39-1.44z"/></g></g></svg>

<svg xmlns="http://www.w3.org/2000/svg" viewBox="0 0 24 24"><defs><style>.cls-1{fill:#fff;opacity:0;}.cls-2{fill:#231f20;}</style></defs><title>loader</title><g id="Layer_2" data-name="Layer 2"><g id="loader"><g id="loader-2" data-name="loader"><rect class="cls-1" width="24" height="24" transform="translate(24 24) rotate(180)"/><path class="cls-2" d="M12,2a1,1,0,0,0-1,1V5a1,1,0,0,0,2,0V3A1,1,0,0,0,12,2Z"/><path class="cls-2" d="M21,11H19a1,1,0,0,0,0,2h2a1,1,0,0,0,0-2Z"/><path class="cls-2" d="M6,12a1,1,0,0,0-1-1H3a1,1,0,0,0,0,2H5A1,1,0,0,0,6,12Z"/><path class="cls-2" d="M6.22,5A1,1,0,0,0,4.83,6.47L6.27,7.86A1,1,0,0,0,7,8.14a1,1,0,0,0,.72-.31,1,1,0,0,0,0-1.41Z"/><path class="cls-2" d="M17,8.14a1,1,0,0,0,.69-.28l1.44-1.39A1,1,0,0,0,17.78,5L16.34,6.42a1,1,0,0,0,0,1.41A1,1,0,0,0,17,8.14Z"/><path class="cls-2" d="M12,18a1,1,0,0,0-1,1v2a1,1,0,0,0,2,0V19A1,1,0,0,0,12,18Z"/><path class="cls-2" d="M17.73,16.14a1,1,0,0,0-1.39,1.44L17.78,19a1,1,0,0,0,.69.28,1,1,0,0,0,.72-.3,1,1,0,0,0,0-1.42Z"/><path class="cls-2" d="M6.27,16.14,4.83,17.53a1,1,0,0,0,0,1.42,1,1,0,0,0,.72.3A1,1,0,0,0,6.22,19l1.44-1.39a1,1,0,0,0-1.39-1.44Z"/></g></g></g></svg>
